www/assets/icons/flashlight_on.svg

<svg xmlns="http://www.w3.org/2000/svg" width="24" height="24" viewBox="0 0 24 24" fill='currentColor'><path d="M18 2H6v3h12zM6 7v1l2 3v11h8V11l2-3V7zm6 8.5c-.83 0-1.5-.67-1.5-1.5s.67-1.5 1.5-1.5 1.5.67 1.5 1.5-.67 1.5-1.5 1.5"/></svg>

<svg width="24" height="24" viewBox="0 0 24 24" xmlns="http://www.w3.org/2000/svg" fill='currentColor'><path d="M18 2H6V5H18V2Z"/><path d="M6 7V8L8 11V22H16V11L18 8V7H6ZM12 15.5C11.17 15.5 10.5 14.83 10.5 14C10.5 13.17 11.17 12.5 12 12.5C12.83 12.5 13.5 13.17 13.5 14C13.5 14.83 12.83 15.5 12 15.5Z"/></svg>
